svgs/sharp-thin/mobile-screen-button.svg

<svg xmlns="http://www.w3.org/2000/svg" viewBox="0 0 384 512"><!--! Font Awesome Pro 6.6.0 by @fontawesome - https://fontawesome.com License - https://fontawesome.com/license (Commercial License) Copyright 2024 Fonticons, Inc. --><path d="M336 16l0 336L48 352 48 16l288 0zm0 352l0 128L48 496l0-128 288 0zM48 0L32 0l0 16 0 480 0 16 16 0 288 0 16 0 0-16 0-480 0-16L336 0 48 0zM192 448a16 16 0 1 1 0-32 16 16 0 1 1 0 32zm-32-16a32 32 0 1 0 64 0 32 32 0 1 0 -64 0z"/></svg>

<svg xmlns="http://www.w3.org/2000/svg" viewBox="0 0 384 512"><!--! Font Awesome Pro 6.5.2 by @fontawesome - https://fontawesome.com License - https://fontawesome.com/license (Commercial License) Copyright 2024 Fonticons, Inc. --><path d="M336 16V352H48V16H336zm0 352V496H48V368H336zM48 0H32V16 496v16H48 336h16V496 16 0H336 48zM192 448a16 16 0 1 1 0-32 16 16 0 1 1 0 32zm-32-16a32 32 0 1 0 64 0 32 32 0 1 0 -64 0z"/></svg>
